!!!COM: Georges Bizet
!!!CNT: Francais
!!!TXO: Francais
!!!OTL: Ma Vie a Son Secret
!!!LYR: Fe/lix Arvers
!!!ENC: Jacob Pegg
!!!YOR: Romantic French Song 1830-1870 -David Tunley, ed.,
!!!YOR: New York: Garland Publishing, Inc., 1995, Vol. 4
!!!ODT: 1868/
!!NB: Vocal melody and text only encoded.
!!NB: First instance of melodic material only encoded.
**kern	**silbe
*clef G2	*
*k[b-e-a-d-g-]	*
*M3/4	*
!!started: 5/7/03 0:03
!!pasted to vi: 5/7/03 8:53
!!encode/analyze/proof/edit: 70 min.
=1	=1
4r	.
4r	.
4r	.
=2	=2
4r	.
4r	.
8r	.
{8f	{Ma
=3	=3
[4a-	vie
8a-]	|
8f	a
8d-	son
8e-	se-
=4	=4
2A-}	-cret,}
8r	.
{8A-	{mon
=5	=5
[4d-	a^-
8d-]	-me
8f	a
8a-	son
8d-	mys-
=6	=6
[2b-	-te\-
8b-]}	-re:}
8r	.
=7	=7
{8e-	{Un
8f	a-
4g-	-mour
8b-	e/-
8cc	-ter-
=8	=8
(4a-	-nel
4dd-)}	|}
8r	.
{8f	{en
=9	=9
8d-	un
8e-	mo-
4.A-	-ment
8A-	cou-
=10	=10
2d-}	-c5u:}
8r	.
{8f	{Le
=11	=11
[4b-	mal
8b-]	|
8a-	est
8gn	sans
8f	re-
=12	=12
4a-	-me\-
4gn}	-de,}
8r	.
{8gn	{aus-
=13	=13
[4cc	-si
8cc]	|
8b-	j'ai
8a-	du^
8gn	le
=14	=14
4b-	tai-
4a-}	-re,}
4r	.
=15	=15
{4b-	{Et
8b-	cel-
8b-	-le
8.b-	qui
16b-	l'a
=16	=16
(4b-	fait
[4bn)	|
8bn]}	|}
8r	.
=17	=17
{(8cc	{n'en
8ee-)	|
8ee-	a
8f	ja-
8.b-	-mais
16cc	rien
=18	=18
2a-}	su.}
8r	.
{8gn	{Ain-
=19	=19
[4gn	-si
8gn]	|
8f	j'au-
8e-	-rai
8dn	pas-
=20	=20
[2c	-se/
8c]	|
8gn	pre\s
=21	=21
[4gn	d'elle
8gn]	|
8f#	i-
8.gn	-na-
16an	-per-
=22	=22
2an}	-c5u,}
8r	.
{8b-	{Tou-
=23	=23
[4b-	-jours
8b-]	|
8a-	a\
8g-	ses
8f	co^-
=24	=24
2e-}	-te/s}
4r	.
=25	=25
{8b-	{et
8b-	tou-
4b-	-jours
8an	so-
8b-	-li-
=26	=26
4dd-	-tai-
4cc}	-re,}
4r	.
=27	=27
{4dd-	{Et
8dd-	j'au-
8cc	-rai
8b-	jus-
8a-	-qu'au
=28	=28
2.gn	bout,
=29	=29
8dd-	fait
8dd-	mon
4dd-	temps
8cc	sur
8b-	la
=30	=30
4ee-	ter-
4e-}	-re,}
4r	.
=31	=31
{8ee-	{N'o-
8dd-	-sant
4cc	rien
8b-	de-
8a-	-man-
=32	=32
(2ff	-der
4dd-)}	|}
=33	=33
8r	.
{8f	{et
8d-	n'a-
8e-	-yant
8.A-	rien
16d-	re-
=34	=34
2d-}	-c5u!}
4r	.
=42	=42
4r	.
4r	.
8r	.
{8d-	{Pour
=43	=43
[4g-	el-
8g-]}	-le,}
8r	.
{8.f	{que
16f	le
=44	=44
2b-}	ciel}
8r	.
{8g-	{a
=45	=45
[4dd-	fai-
8dd-]	|
8dd-	-te
8cc	douce
8b-	et
=46	=46
[4a-	ten-
4a-]}	-dre,}
4r	.
=47	=47
{4a-	{El-
8a-	-le
8g-	suit
8.f	son
16e-	che-
=48	=48
(4g-	-min,
4f)}	|}
8r	.
{8f	{dis-
=49	=49
[4b-	-traite
8b-]	|
8a-	et
8g-	sans
8f	en-
=50	=50
4a-	-ten-
4g-}	-dre}
4r	.
=51	=51
{8a-	{La
8a-	mur-
4a-	-mu-
8a-	-re
8a-	d'a-
=52	=52
(4a-	-mour
[4an)	|
8an]}	|}
8r	.
=53	=53
{8b-	{e/-
8dd-	-le-
(8dd-	-ve/
8e-)	|
8.a-	sur
16b-	ses
=54	=54
2g-}	pas.}
4r	.
=55	=55
{8b-	{A
8b-	l'aus-
(8b-	-te\-
8a-)	|
8g-	-re
8f	de-
=56	=56
2e-}	-voir}
8r	.
{8b-	{pi-
=57	=57
[4b-	-eu-
8b-]	|
8b-	-se-
8an	-ment
8b-	fi-
=58	=58
4dd-	-de\-
4cc}	-le,}
4r	.
=59	=59
{4dd-	{El-
8dd-	-le
8cc	di-
8b-}	-ra,}
16r	.
{16a-	{li-
=60	=60
[2gn	-sant
8gn]	|
8gn	ces
=61	=61
[4dd-	vers
8dd-]	|
8dd-	tout
8cc	rem-
8b-	-plis
=62	=62
4ee-	d'el-
4e-}	-le:}
4r	.
=63	=63
{8ee-	{<<Quelle
8dd-	est
4cc	donc
8b-	cet-
8a-	-te
=64	=64
2ff	fem-
8dd-}	-me?>>}
8r	.
=65	=65
8r	.
{8f	{et
8d-	ne
8e-	com-
8.A-	-pren-
16d-	-dra
=66	=66
2d-}	pas!}
4r	.
*-	*-
